svgs/sharp-solid/code-fork.svg

<svg xmlns="http://www.w3.org/2000/svg" viewBox="0 0 448 512"><!--! Font Awesome Pro 6.6.0 by @fontawesome - https://fontawesome.com License - https://fontawesome.com/license (Commercial License) Copyright 2024 Fonticons, Inc. --><path d="M104 56l0 48-48 0 0-48 48 0zM56 0L0 0 0 56l0 48 0 56 48 0 0 32c0 53 43 96 96 96l48 0 0 64-48 0 0 56 0 48 0 56 56 0 48 0 56 0 0-56 0-48 0-56-48 0 0-64 48 0c53 0 96-43 96-96l0-32 48 0 0-56 0-48 0-56L392 0 344 0 288 0l0 56 0 48 0 56 48 0 0 32c0 17.7-14.3 32-32 32l-160 0c-17.7 0-32-14.3-32-32l0-32 48 0 0-56 0-48 0-56L104 0 56 0zM392 56l0 48-48 0 0-48 48 0zM200 408l48 0 0 48-48 0 0-48z"/></svg>

<svg xmlns="http://www.w3.org/2000/svg" viewBox="0 0 448 512"><!--! Font Awesome Pro 6.4.2 by @fontawesome - https://fontawesome.com License - https://fontawesome.com/license (Commercial License) Copyright 2023 Fonticons, Inc. --><path d="M104 56v48H56V56h48zM56 0H0V56v48 56H48v32c0 53 43 96 96 96h48v64H144v56 48 56h56 48 56V456 408 352H256V288h48c53 0 96-43 96-96V160h48V104 56 0H392 344 288V56v48 56h48v32c0 17.7-14.3 32-32 32H144c-17.7 0-32-14.3-32-32V160h48V104 56 0H104 56zM392 56v48H344V56h48zM200 408h48v48H200V408z"/></svg>
